X:345
T:San ton karagiozi
C:Dionysis Savvopoulos
Z:Jack Campin, http://www.campin.me.uk/
F:Jack Campin's Nine-Note Tunebook
% last edit 23-07-2014
M:2/4
L:1/8
Q:1/4=108
P:ABA
K:DMin
P:A
 D2 D2 | AG A2|DD  BA |G2  G2| G>F GB |AG  F2|[1 ED ^CD |E2 E2:|\
                                              [2 EG  FE |D2 D2|]
P:B
^FF F^E|^F2 D2|dd ^c=B|A2 ^F2|=FF  F=E|DE  FD|   E4     |A4    |
_BB BA | B2 G2|FE  DF |A4    | FE  DF |ED ^CD|   AA  A^G|F2 E2||


% == Latvian dance tunes ====================================================

